public/avatar/item1/45.svg

<svg xmlns:xlink="http://www.w3.org/1999/xlink" height="65.4" width="80.15" xmlns="http://www.w3.org/2000/svg"><use height="21.5" transform="translate(38.45 37.75)" width="10.1" xlink:href="#a"/><defs><use height="21.5" width="10.1" xlink:href="#b" id="a"/><g id="b" fill-rule="evenodd"><path d="m-1.2-4.1.1-.2.25.05.95.3q-3.45 6.3-5 13.3l-.15-2.4.05-.05q1.85-7.2 3.8-11" fill="#777774" transform="translate(5.05 10.75)"/><path d="M.1-3.95q2.05.55 2.45 1.05.75.75-4.4 12.25v.1l-3 1.3-.05-1.4q1.55-7 5-13.3" fill="#514c49" transform="translate(5.05 10.75)"/><path d="M-4.25 9.45-4.35 7l3.05-8.9L1.3-.3 1 .55l-5.25 8.9" fill="#b8b1b1" transform="translate(5.05 10.75)"/><path d="M1.95-2.25 1.3-.3l-2.6-1.6.6-1.55q2.3.7 2.65 1v.2" fill="#777774" transform="translate(5.05 10.75)"/><path d="m-2.35 8.85-1.85.85-.05-.25L1 .55l-3.35 8.3m1.1-10.7.65.4L-4.3 7l3.05-8.85" fill="#fff" transform="translate(5.05 10.75)"/><path d="M1.6-5.25Q4.9-3.95 5-1.6l.05 1.05-.9-.55Q2.2-2.3-.8-3.1l-2.6-.55-1.4-.2 1.1-.8q2.35-1.7 5.3-.6" fill="#905308" transform="translate(5.05 10.75)"/><path d="M1.4-4.7q2.9 1.05 3.05 3.1Q2.4-2.85-.7-3.65l-2.65-.55q2.05-1.5 4.75-.5" fill="#ffff79" transform="translate(5.05 10.75)"/><path d="M1.4-4.7q2.9 1.05 3.05 3.1l-2.6-1.25Q0-3.55 0-4.4q0-.85 1.4-.3" fill="#de9017" transform="translate(5.05 10.75)"/><path d="m1.75-8.8 1.7.35.3.15v.3q.1 2.45-1.2 4.35v-.15l-.1.25.1-.1-.35.4-1.45-.1q-.65-.35-.85-1l-.05-.1v-.1q.1-1.75.8-3.1l.8-1 .1-.1.2-.05" fill="#514c49" transform="translate(5.05 10.75)"/><path d="m1.8-8.25 1.4.3q.05 2.3-1.2 4.1L1-3.9Q.55-4 .4-4.55q.1-1.6.75-2.8l.65-.9" fill="#b8b1b1" transform="translate(5.05 10.75)"/><path d="m2.65-8.2.6.25q.05 2.3-1.2 4.1l-1-.05L2.1-6.05q.35-2.15.55-2.15" fill="#777774" transform="translate(5.05 10.75)"/><path d="M.75-8.8q0-1.95 1.9-1.95 1.95 0 1.95 1.95 0 1.9-1.95 1.9-1.9 0-1.9-1.9" fill="#905308" transform="translate(5.05 10.75)"/><path d="M4-8.8q0 1.35-1.35 1.35T1.3-8.8q0-1.4 1.35-1.4T4-8.8" fill="#ffff79" transform="translate(5.05 10.75)"/><path d="M4-8.8q0 1.35-1.35 1.35l-.55-.1q.8-.5 1.15-1.1l.15-1.3q.6.4.6 1.15" fill="#de9017" transform="translate(5.05 10.75)"/></g></defs></svg>

<?xml version="1.0" encoding="UTF-8" standalone="no"?>
<svg xmlns:xlink="http://www.w3.org/1999/xlink" height="65.4px" width="80.15px" xmlns="http://www.w3.org/2000/svg">
  <g transform="matrix(1.0, 0.0, 0.0, 1.0, 31.6, 13.8)">
    <use height="21.5" transform="matrix(1.0, 0.0, 0.0, 1.0, 6.85, 23.95)" width="10.1" xlink:href="#sprite0"/>
  </g>
  <defs>
    <g id="sprite0" transform="matrix(1.0, 0.0, 0.0, 1.0, 5.05, 10.75)">
      <use height="21.5" transform="matrix(1.0, 0.0, 0.0, 1.0, -5.05, -10.75)" width="10.1" xlink:href="#shape0"/>
    </g>
    <g id="shape0" transform="matrix(1.0, 0.0, 0.0, 1.0, 5.05, 10.75)">
      <path d="M-1.2 -4.1 L-1.1 -4.3 -0.85 -4.25 0.1 -3.95 Q-3.35 2.35 -4.9 9.35 L-5.05 6.95 -5.0 6.9 Q-3.15 -0.3 -1.2 -4.1" fill="#777774" fill-rule="evenodd" stroke="none"/>
      <path d="M0.1 -3.95 Q2.15 -3.4 2.55 -2.9 3.3 -2.15 -1.85 9.35 L-1.85 9.45 -4.85 10.75 -4.9 9.35 Q-3.35 2.35 0.1 -3.95" fill="#514c49" fill-rule="evenodd" stroke="none"/>
      <path d="M-4.25 9.45 L-4.35 7.0 -1.3 -1.9 1.3 -0.3 1.0 0.55 -4.25 9.45" fill="#b8b1b1" fill-rule="evenodd" stroke="none"/>
      <path d="M1.95 -2.25 L1.3 -0.3 -1.3 -1.9 -0.7 -3.45 Q1.6 -2.75 1.95 -2.45 L1.95 -2.25" fill="#777774" fill-rule="evenodd" stroke="none"/>
      <path d="M-2.35 8.85 L-4.2 9.7 -4.25 9.45 1.0 0.55 -2.35 8.85" fill="#ffffff" fill-rule="evenodd" stroke="none"/>
      <path d="M-1.25 -1.85 L-0.6 -1.45 -4.3 7.0 -1.25 -1.85" fill="#ffffff" fill-rule="evenodd" stroke="none"/>
      <path d="M1.6 -5.25 Q4.9 -3.95 5.0 -1.6 L5.05 -0.55 4.15 -1.1 Q2.2 -2.3 -0.8 -3.1 L-3.4 -3.65 -4.8 -3.85 -3.7 -4.65 Q-1.35 -6.35 1.6 -5.25" fill="#905308" fill-rule="evenodd" stroke="none"/>
      <path d="M1.4 -4.7 Q4.3 -3.65 4.45 -1.6 2.4 -2.85 -0.7 -3.65 L-3.35 -4.2 Q-1.3 -5.7 1.4 -4.7" fill="#ffff79" fill-rule="evenodd" stroke="none"/>
      <path d="M1.4 -4.7 Q4.3 -3.65 4.45 -1.6 L1.85 -2.85 Q0.0 -3.55 0.0 -4.4 0.0 -5.25 1.4 -4.7" fill="#de9017" fill-rule="evenodd" stroke="none"/>
      <path d="M1.75 -8.8 L3.45 -8.45 3.75 -8.3 3.75 -8.0 Q3.85 -5.55 2.55 -3.65 L2.55 -3.8 2.45 -3.55 2.55 -3.65 2.2 -3.25 0.75 -3.35 Q0.1 -3.7 -0.1 -4.35 L-0.15 -4.45 -0.15 -4.55 Q-0.05 -6.3 0.65 -7.65 L1.45 -8.65 1.55 -8.75 1.75 -8.8" fill="#514c49" fill-rule="evenodd" stroke="none"/>
      <path d="M1.8 -8.25 L3.2 -7.95 Q3.25 -5.65 2.0 -3.85 L1.0 -3.9 Q0.55 -4.0 0.4 -4.55 0.5 -6.15 1.15 -7.35 L1.8 -8.25" fill="#b8b1b1" fill-rule="evenodd" stroke="none"/>
      <path d="M2.65 -8.2 L3.25 -7.95 Q3.3 -5.65 2.05 -3.85 L1.05 -3.9 2.1 -6.05 Q2.45 -8.2 2.65 -8.2" fill="#777774" fill-rule="evenodd" stroke="none"/>
      <path d="M0.75 -8.8 Q0.75 -10.75 2.65 -10.75 4.6 -10.75 4.6 -8.8 4.6 -6.9 2.65 -6.9 0.75 -6.9 0.75 -8.8" fill="#905308" fill-rule="evenodd" stroke="none"/>
      <path d="M4.0 -8.8 Q4.0 -7.45 2.65 -7.45 1.3 -7.45 1.3 -8.8 1.3 -10.2 2.65 -10.2 4.0 -10.2 4.0 -8.8" fill="#ffff79" fill-rule="evenodd" stroke="none"/>
      <path d="M4.0 -8.8 Q4.0 -7.45 2.65 -7.45 L2.1 -7.55 Q2.9 -8.05 3.25 -8.65 L3.4 -9.95 Q4.0 -9.55 4.0 -8.8" fill="#de9017" fill-rule="evenodd" stroke="none"/>
    </g>
  </defs>
</svg>
